src/assets/filled/PlayCricle.svg

<svg width="24" height="24" viewBox="0 0 24 24"  xmlns="http://www.w3.org/2000/svg">
<path d="M19.07 19.8201C18.88 19.8201 18.69 19.7501 18.54 19.6001C18.25 19.3101 18.25 18.8301 18.54 18.5401C22.15 14.9301 22.15 9.06012 18.54 5.46012C18.25 5.17012 18.25 4.69012 18.54 4.40012C18.83 4.11012 19.31 4.11012 19.6 4.40012C23.79 8.59012 23.79 15.4101 19.6 19.6001C19.45 19.7501 19.26 19.8201 19.07 19.8201Z" />
<path d="M4.93007 19.8201C4.74007 19.8201 4.55007 19.7501 4.40007 19.6001C0.210068 15.4101 0.210068 8.59012 4.40007 4.40012C4.69007 4.11012 5.17007 4.11012 5.46007 4.40012C5.75007 4.69012 5.75007 5.17012 5.46007 5.46012C1.85007 9.07012 1.85007 14.9401 5.46007 18.5401C5.75007 18.8301 5.75007 19.3101 5.46007 19.6001C5.31007 19.7501 5.12007 19.8201 4.93007 19.8201Z" />
<path d="M12 22.71C10.75 22.7 9.56 22.5 8.45 22.11C8.06 21.97 7.85 21.54 7.99 21.15C8.13 20.76 8.55 20.55 8.95 20.69C9.91 21.02 10.93 21.2 12.01 21.2C13.08 21.2 14.11 21.02 15.06 20.69C15.45 20.56 15.88 20.76 16.02 21.15C16.16 21.54 15.95 21.97 15.56 22.11C14.44 22.5 13.25 22.71 12 22.71Z" />
<path d="M15.3 3.34004C15.22 3.34004 15.13 3.33004 15.05 3.30004C14.1 2.96004 13.07 2.79004 12 2.79004C10.93 2.79004 9.91 2.97004 8.95 3.30004C8.55 3.43004 8.13 3.23004 7.99 2.84004C7.85 2.45004 8.06 2.02004 8.45 1.88004C9.57 1.49004 10.76 1.29004 12 1.29004C13.24 1.29004 14.44 1.49004 15.55 1.88004C15.94 2.02004 16.15 2.45004 16.01 2.84004C15.9 3.15004 15.61 3.34004 15.3 3.34004Z" />
<path d="M8.73999 11.9999V10.3299C8.73999 8.2499 10.21 7.3999 12.01 8.4399L13.46 9.2799L14.91 10.1199C16.71 11.1599 16.71 12.8599 14.91 13.8999L13.46 14.7399L12.01 15.5799C10.21 16.6199 8.73999 15.7699 8.73999 13.6899V11.9999Z" />
</svg>

<?xml version="1.0" encoding="UTF-8"?>
<svg width="24" height="24" viewBox="0 0 24 24" xmlns="http://www.w3.org/2000/svg">
 <path d="m19.07 19.82c-0.19 0-0.38-0.07-0.53-0.22-0.29-0.29-0.29-0.77 0-1.06 3.61-3.61 3.61-9.48 0-13.08-0.29-0.29-0.29-0.77 0-1.06s0.77-0.29 1.06 0c4.19 4.19 4.19 11.01 0 15.2-0.15 0.15-0.34 0.22-0.53 0.22z"/>
 <path d="m4.9301 19.82c-0.19 0-0.38-0.07-0.53-0.22-4.19-4.19-4.19-11.01 0-15.2 0.29-0.29 0.77-0.29 1.06 0s0.29 0.77 0 1.06c-3.61 3.61-3.61 9.48 0 13.08 0.29 0.29 0.29 0.77 0 1.06-0.15 0.15-0.34 0.22-0.53 0.22z"/>
 <path d="m12 22.71c-1.25-0.01-2.44-0.21-3.55-0.6-0.39-0.14-0.6-0.57-0.46-0.96s0.56-0.6 0.96-0.46c0.96 0.33 1.98 0.51 3.06 0.51 1.07 0 2.1-0.18 3.05-0.51 0.39-0.13 0.82 0.07 0.96 0.46s-0.07 0.82-0.46 0.96c-1.12 0.39-2.31 0.6-3.56 0.6z"/>
 <path d="m15.3 3.34c-0.08 0-0.17-0.01-0.25-0.04-0.95-0.34-1.98-0.51-3.05-0.51s-2.09 0.18-3.05 0.51c-0.4 0.13-0.82-0.07-0.96-0.46s0.07-0.82 0.46-0.96c1.12-0.39 2.31-0.59 3.55-0.59s2.44 0.2 3.55 0.59c0.39 0.14 0.6 0.57 0.46 0.96-0.11 0.31-0.4 0.5-0.71 0.5z"/>
 <path d="m8.74 12v-1.67c0-2.08 1.47-2.93 3.27-1.89l2.9 1.68c1.8 1.04 1.8 2.74 0 3.78l-2.9 1.68c-1.8 1.04-3.27 0.19-3.27-1.89v-1.69z"/>
</svg>
